icons/bell-24.svg

<svg xmlns="http://www.w3.org/2000/svg" width="24" height="24" viewBox="0 0 24 24"><path d="M12 1c3.681 0 7 2.565 7 6v4.539c0 .642.189 1.269.545 1.803l2.2 3.298A1.517 1.517 0 0120.482 19H15.5a3.5 3.5 0 11-7 0H3.519a1.518 1.518 0 01-1.265-2.359l2.2-3.299A3.25 3.25 0 005 11.539V7c0-3.435 3.318-6 7-6zM6.5 7v4.539a4.75 4.75 0 01-.797 2.635l-2.2 3.298-.003.01.001.007.004.006.006.004.007.001h16.964l.007-.001.006-.004.004-.006.001-.006a.017.017 0 00-.003-.01l-2.199-3.299a4.753 4.753 0 01-.798-2.635V7c0-2.364-2.383-4.5-5.5-4.5S6.5 4.636 6.5 7zM14 19h-4a2 2 0 104 0z"/></svg>

<svg xmlns="http://www.w3.org/2000/svg" width="24" height="24" viewBox="0 0 24 24">
  <defs/>
  <path d="M12,1 C15.681,1 19,3.565 19,7 L19,11.539 C19,12.181 19.189,12.808 19.545,13.342 L21.745,16.64 C22.056,17.106 22.084,17.705 21.82,18.198 C21.556,18.692 21.042,19 20.482,19 L15.5,19 C15.5,20.933 13.933,22.5 12,22.5 C10.067,22.5 8.5,20.933 8.5,19 L3.519,19 C2.959,19 2.445,18.693 2.18,18.199 C1.915,17.706 1.944,17.107 2.254,16.641 L4.454,13.342 C4.81,12.808 5,12.181 5,11.539 L5,7 C5,3.565 8.318,1 12,1 Z M6.5,7 L6.5,11.539 C6.5,12.477 6.223,13.394 5.703,14.174 L3.503,17.472 L3.5,17.482 L3.501,17.489 L3.505,17.495 L3.511,17.499 L3.518,17.5 L20.482,17.5 L20.489,17.499 L20.495,17.495 L20.499,17.489 L20.5,17.483 C20.5,17.479 20.499,17.476 20.497,17.473 L18.298,14.174 C17.778,13.393 17.5,12.477 17.5,11.539 L17.5,7 C17.5,4.636 15.117,2.5 12,2.5 C8.883,2.5 6.5,4.636 6.5,7 Z M14,19 L10,19 C10,20.105 10.895,21 12,21 C13.105,21 14,20.105 14,19 Z"/>
</svg>
